vendor/shopware/storefront/Resources/app/storefront/dist/assets/icon/default/shopware.svg

<svg xmlns="http://www.w3.org/2000/svg" width="24" height="24" viewBox="0 0 24 24">
  <path fill="#758CA3" fill-rule="evenodd" d="M19.0875676,21.3016216 C19.1308108,21.3340541 19.1545946,21.3859459 19.1545946,21.44 C19.1545946,21.4940541 19.1286486,21.5437838 19.0854054,21.5762162 C17.0248649,23.1005405 14.5794595,23.907027 12.0108108,23.907027 C8.83027027,23.907027 5.84216216,22.6681081 3.59567568,20.4216216 C1.34702703,18.1751351 0.11027027,15.187027 0.11027027,12.0086486 C0.11027027,8.83243243 1.34918919,5.84432432 3.59567568,3.59783784 C5.84432432,1.34918919 8.83243243,0.112432432 12.0108108,0.112432432 C14.9513514,0.112432432 17.7751351,1.19351351 19.9589189,3.15891892 C20.0151351,3.20864865 20.0324324,3.28864865 20,3.35783784 C19.9697297,3.42486486 19.8983784,3.46594595 19.8227027,3.45513514 C18.9751351,3.33837838 18.0605405,3.28 17.1027027,3.28 C13.6367568,3.28 10.8216216,4.05405405 8.96432432,5.51567568 C7.30810811,6.81945946 6.43243243,8.6227027 6.43243243,10.732973 C6.43243243,13.0832432 7.33405405,14.9427027 9.18486486,16.4172973 C10.8194595,17.7167568 12.9967568,18.5621622 14.9167568,19.3059459 C16.5297297,19.9308108 18.0540541,20.5232432 19.0875676,21.3016216 Z M23.8572973,10.9102703 C23.8918919,11.2886486 23.907027,11.6583784 23.9091892,12.0086486 C23.9091892,13.5027027 23.6345946,14.9621622 23.0940541,16.3459459 C23.0767568,16.3935135 23.0378378,16.4281081 22.9924324,16.4454054 C22.972973,16.4518919 22.9535135,16.4562162 22.9340541,16.4562162 C22.9059459,16.4562162 22.8778378,16.4497297 22.8518919,16.4345946 C21.4378378,15.6497297 19.8962162,15.0745946 18.4064865,14.5189189 C15.5135135,13.44 13.0162162,12.5081081 13.0162162,10.4648649 C13.0162162,9.73621622 13.3210811,9.11351351 13.8983784,8.66810811 C14.5643243,8.15351351 15.5632432,7.89189189 16.8648649,7.89189189 C19.3059459,7.89189189 21.3145946,8.73297297 23.7967568,10.7935135 C23.8313514,10.8216216 23.852973,10.8648649 23.8572973,10.9102703 Z"/>
</svg>

<svg xmlns="http://www.w3.org/2000/svg" width="24" height="24" viewBox="0 0 24 24"><path fill="#758CA3" fill-rule="evenodd" d="M19.0876 21.3016a.172.172 0 0 1 .067.1384.17.17 0 0 1-.0692.1362c-2.0605 1.5243-4.506 2.3308-7.0746 2.3308-3.1805 0-6.1686-1.2389-8.4151-3.4854C1.347 18.1751.1103 15.187.1103 12.0086c0-3.1762 1.2389-6.1643 3.4854-8.4108C5.8443 1.3492 8.8324.1124 12.0108.1124c2.9406 0 5.7643 1.0811 7.9481 3.0465A.1685.1685 0 0 1 20 3.358a.1682.1682 0 0 1-.1773.0972c-.8476-.1167-1.7622-.1751-2.72-.1751-3.466 0-6.281.774-8.1384 2.2357-1.6562 1.3038-2.5319 3.107-2.5319 5.2173 0 2.3502.9017 4.2097 2.7525 5.6843 1.6346 1.2995 3.8119 2.1449 5.7319 2.8886 1.613.625 3.1373 1.2173 4.1708 1.9957zm4.7697-10.3913c.0346.3783.0497.748.0519 1.0983 0 1.4941-.2746 2.9536-.8151 4.3373-.0173.0476-.0563.0822-.1017.0995a.1854.1854 0 0 1-.0583.0108.1612.1612 0 0 1-.0822-.0216c-1.414-.7849-2.9557-1.36-4.4454-1.9157-2.893-1.0789-5.3903-2.0108-5.3903-4.054 0-.7287.3049-1.3514.8822-1.7968.666-.5146 1.6648-.7762 2.9665-.7762 2.441 0 4.4497.841 6.9319 2.9016a.172.172 0 0 1 .0605.1168z"/></svg>
